X: 19
T: JIGS: Leitrim Fancy Set
T: Leitrim Fancy
C: C: Trad.; S: Various
C: Set Leaders: Vova, Anton, Tania, André
Z: Anton Zille ed., Oleg Naumov arr.; JACKB / Sean Perry at The Session
N: https://thesession.org/members/26966/sets/96724
R: Jig
M: 6/8
L: 1/8
Q: 3/8=116
K: Emin
|:"Em"GBG "D"FAF|"Em"E2B BAB|"C"GBG FAF|"D"DFA AFD|
"Em"GBG "D"FAF|"Em (C)"E2B BAB|"C"GAB dBG|"D"ABG FED:||
|:"G"GAB dBd|edB dBA|"C"GAB dBG|"D"ABG FED|
"G"GAB dBd|"G"edB "Bm"def|"C"gfe dBG|"D"ABG FED:||
T: Merrily Kiss the Quaker
R: Single Jig
M: 12/8
K: Gmaj
|:"G"GAB D2B "(C)"c2A "(D)"BGE|"G"GAB DEG "D"A3 AGE|
"G"GAB D2B "C"c2A "D"BGE|1 "G"GAB "D"DEF "G"G3 G2D:|2 "G"GAB "D"DEF "G"G3 G2A||
|:"G"BGG AGG BGG AGE|"G"GAB DEG "D"A3 AGA|
"G"BGG AGG BGG AGE|1 "C"GAB "D"DEF "G"G3 G2A:|2 "C"GAB "D"DEF "G"G3 GBd||
|:"G"g3 "D"aga "G"bge dBd|"C"gfg gab "D"a3 agf|
"Em"gbg "D"faf "C"e/f/ge dBA|1 "C"GAB "D"DEF "G"G3 GBd:|2 "C"GAB "D"DEF "G"G3 G2D||

